!!!COM:	Pierre de la Rue
**kern	**kern
*part2	*part1
*staff2	*staff1
*clefGv2	*clefG2
*k[]	*k[]
*M2/1	*M2/1
=1-	=1-
1A	0r
4A	.
4B	.
4c	.
4d	.
=2	=2
0e	2r
.	2.c
.	4d
.	4e
.	4f
=3	=3
0e	2.g
.	4a
.	2b
.	[2cc
=4	=4
0d	2cc]
.	4b
.	4a
.	1b
=5	=5
1c	0e
2r	.
2A	.
=6	=6
4A	1r
4B	.
4c	.
4d	.
2e	2r
[2f	[2a
=7	=7
2f]	2a]
4e	4g
4d	4f
1e	1g
=8	=8
0A	2a
.	1cc
.	4b
.	4a
=9	=9
2r	2b
1d	2a
.	4b
.	4a
2B	4g
.	4f
=10	=10
1c	1e
2d	2r
[2f	4d
.	4e
=11	=11
2f]	4f
.	4g
4e	4a
4d	4b
2e	2cc
2d	[2b
=12	=12
4e	2b]
4d	.
4c	2.g
4B	.
1A	.
.	4f
.	2f
=13	=13
1G	[0g
2r	.
4c	.
4B	.
=14	=14
4c	0g]
4d	.
1e	.
4d	.
4c	.
=15	=15
2B	2r
2c	4g
.	4f
2G	4g
.	4a
[2d	[2b
=16	=16
2d]	2b]
4c	4a
4B	4g
2c	2a
2d	2b
=17	=17
1e	2e
.	1b
[1d	.
.	4a
.	4g
=18	=18
2d]	2a
4c	2b
4B	.
4A	1cc
4B	.
4c	.
8BL	.
8cJ	.
=19	=19
4d	2b
4c	.
4B	1a
4A	.
1B	.
.	2g
=20	=20
0A	1a
.	2r
.	2e
=21	=21
1r	2e
.	1f
2r	.
2A	4e
.	4d
=22	=22
2A	2e
1B	1d
4A	2b
4G	.
=23	=23
2A	2cc
2F	2a
1G	2b
.	[2dd
=24	=24
2r	4dd]
.	4cc
2d	4b
.	4a
2e	2.g
2c	.
.	4a
=25	=25
2d	2b
2.f	1a
4e	.
4d	[2dd
4c	.
=26	=26
2B	2dd]
2c	1cc
1d	.
.	2b
=27	=27
0c	2.cc
.	4b
.	2g
.	[2a
=28	=28
1r	4a]
.	4g
.	2e
2r	2.f
2d	.
.	4e
=29	=29
2.e	1c
4d	.
2B	1r
[2c	.
=30	=30
4c]	2r
4B	.
2G	2g
2.A	2e
.	2f
4G	.
=31	=31
0E	2g
.	2a
.	2b
.	2cc
=32	=32
2r	2.dd
2B	.
.	4cc
2G	2b
2A	2a
=33	=33
2B	2g
2c	4f
.	4e
2d	2f
2e	2e
=34	=34
4f	2r
4e	.
4d	1a
4c	.
1B	.
.	2g
=35	=35
1A	2f
.	4e
.	4d
2r	2c
[2A	[2cc
=36	=36
2A]	4cc]
.	4b
2G	4a
.	4g
2F	2a
4E	4g
4D	4f
=37	=37
2C	2e
2.c	2A
.	2r
4B	.
4A	4A
4G	4B
=38	=38
2A	4c
.	4d
4G	4e
4F	4f
2E	4g
.	4e
2D	[2f
=39	=39
1E	2f]
.	2.e
1F	.
.	4d
.	2d
=40	=40
0E	0e
==	==
*-	*-
